icons/svg/transport/aerialway_station.svg

<?xml version="1.0" encoding="UTF-8" standalone="no"?>
<!-- Created with Inkscape (http://www.inkscape.org/) -->

<svg
   xmlns:dc="http://purl.org/dc/elements/1.1/"
   xmlns:cc="http://creativecommons.org/ns#"
   xmlns:rdf="http://www.w3.org/1999/02/22-rdf-syntax-ns#"
   xmlns:svg="http://www.w3.org/2000/svg"
   xmlns="http://www.w3.org/2000/svg"
   xmlns:sodipodi="http://sodipodi.sourceforge.net/DTD/sodipodi-0.dtd"
   xmlns:inkscape="http://www.inkscape.org/namespaces/inkscape"
   version="1.0"
   width="580"
   height="580"
   id="svg2"
   sodipodi:version="0.32"
   inkscape:version="0.48.4 r9939"
   sodipodi:docname="aerialway_station.svg"
   inkscape:output_extension="org.inkscape.output.svg.inkscape">
  <metadata
     id="metadata10">
    <rdf:RDF>
      <cc:Work
         rdf:about="">
        <dc:format>image/svg+xml</dc:format>
        <dc:type
           rdf:resource="http://purl.org/dc/dcmitype/StillImage" />
        <cc:license
           rdf:resource="http://web.resource.org/cc/PublicDomain" />
        <dc:language>en</dc:language>
        <dc:title />
      </cc:Work>
    </rdf:RDF>
  </metadata>
  <sodipodi:namedview
     inkscape:window-height="1004"
     inkscape:window-width="1920"
     inkscape:pageshadow="2"
     inkscape:pageopacity="0.0"
     guidetolerance="10.0"
     gridtolerance="10.0"
     objecttolerance="10.0"
     borderopacity="1.0"
     bordercolor="#666666"
     pagecolor="#ffffff"
     id="base"
     showgrid="false"
     inkscape:zoom="0.70710678"
     inkscape:cx="455.91405"
     inkscape:cy="336.53056"
     inkscape:window-x="1680"
     inkscape:window-y="0"
     inkscape:current-layer="svg2"
     inkscape:window-maximized="1">
    <inkscape:grid
       type="xygrid"
       id="grid3779" />
  </sodipodi:namedview>
  <defs
     id="defs4">
    <inkscape:perspective
       sodipodi:type="inkscape:persp3d"
       inkscape:vp_x="0 : 290 : 1"
       inkscape:vp_y="0 : 1000 : 0"
       inkscape:vp_z="580 : 290 : 1"
       inkscape:persp3d-origin="290 : 193.33333 : 1"
       id="perspective12" />
    <style
       type="text/css"
       id="style6">
   
    .fil0 {fill:#EF7900}
   
  </style>
    <inkscape:perspective
       id="perspective6807"
       inkscape:persp3d-origin="29.116032 : 19.410688 : 1"
       inkscape:vp_z="58.232063 : 29.116032 : 1"
       inkscape:vp_y="0 : 1000 : 0"
       inkscape:vp_x="0 : 29.116032 : 1"
       sodipodi:type="inkscape:persp3d" />
    <inkscape:perspective
       id="perspective6954"
       inkscape:persp3d-origin="290 : 193.33333 : 1"
       inkscape:vp_z="580 : 290 : 1"
       inkscape:vp_y="0 : 1000 : 0"
       inkscape:vp_x="0 : 290 : 1"
       sodipodi:type="inkscape:persp3d" />
    <marker
       viewBox="0 0 10 10"
       refY="5"
       refX="10"
       orient="auto"
       markerWidth="4"
       markerUnits="strokeWidth"
       markerHeight="3"
       id="ArrowStart">
      <path
         id="path2295"
         d="M 10 0 L 0 5 L 10 10 z" />
    </marker>
    <marker
       viewBox="0 0 10 10"
       refY="5"
       refX="0"
       orient="auto"
       markerWidth="4"
       markerUnits="strokeWidth"
       markerHeight="3"
       id="ArrowEnd">
      <path
         id="path2292"
         d="M 0 0 L 10 5 L 0 10 z" />
    </marker>
    <inkscape:perspective
       id="perspective7597"
       inkscape:persp3d-origin="178.5405 : 158.483 : 1"
       inkscape:vp_z="357.08099 : 237.7245 : 1"
       inkscape:vp_y="0 : 1000 : 0"
       inkscape:vp_x="0 : 237.7245 : 1"
       sodipodi:type="inkscape:persp3d" />
  </defs>
  <g
     id="g1327">
    <path
       d="M 66.275,1.768 C 24.94,1.768 1.704,23.139 1.704,66.804 L 1.704,516.927 C 1.704,557.771 22.598,579.156 63.896,579.156 L 515.92,579.156 C 557.227,579.156 578.149,558.84 578.149,516.927 L 578.149,66.804 C 578.149,24.203 557.227,1.768 514.627,1.768 C 514.624,1.768 66.133,1.625 66.275,1.768 z"
       style="fill:#111111;stroke:#eeeeee;stroke-width:3.40799999"
       id="path1329" />
  </g>
  <g
     id="g2319"
     transform="translate(879.29125,36.805119)">
    <path
       id="path2323"
       style="fill:#ffffff;stroke:none"
       d="" />
  </g>
  <g
     id="g2325"
     transform="translate(879.29125,36.805119)">
    <path
       id="path2329"
       style="fill:#ffffff;stroke:none"
       d="" />
  </g>
  <path
     inkscape:connector-curvature="0"
     style="fill:#ffffff;fill-opacity:1;stroke:none"
     d="m 288.16116,260.61842 -28.07428,0 c -34.28655,0 -61.61356,28.07189 -61.61356,62.3592 l 0,126.95323 c 1.80545,34.59257 27.57444,63.28337 64.09796,62.60724 l 152.79188,0 c 38.61475,1.01829 65.76517,-39.8473 66.3335,-62.60724 l 0,-126.95323 c 0,-34.28731 -27.32622,-62.3592 -61.61348,-62.3592 l -32.04855,0 z m 75.0293,0 -49.93712,0 z m -106.05619,30.30985 166.13119,0 c 13.04142,0 24.34729,10.3121 24.34729,23.35349 l 0,86.45764 c 0,13.04138 -11.30587,23.35351 -24.34729,23.35351 l -166.13119,0 c -13.04138,0 -24.09844,-10.31213 -24.09844,-23.35351 l 0,-86.45764 c 0,-13.04139 11.05706,-23.35349 24.09844,-23.35349 z"
     id="rect4085"
     sodipodi:nodetypes="ccccccccccccccccccccccc" />
  <rect
     style="fill:#ffffff;fill-opacity:1;fill-rule:evenodd;stroke:none"
     id="rect3480"
     width="462.52582"
     height="48.848812"
     x="-100.64758"
     y="247.81993"
     transform="matrix(0.88199495,-0.47125886,0.47125886,0.88199495,0,0)"
     ry="0" />
  <rect
     style="fill:#ffffff;fill-opacity:1;fill-rule:evenodd;stroke:none"
     id="rect3480-7"
     width="153.30843"
     height="30.823336"
     x="-282.90222"
     y="324.96616"
     transform="matrix(0.00141544,-0.999999,0.99999755,0.00221369,0,0)"
     ry="0" />
</svg>

<svg width="580" height="580" viewBox="0 0 580 580" fill="none" xmlns="http://www.w3.org/2000/svg">
<g clip-path="url(#clip0)">
<path d="M66.2751 1.76766C24.9401 1.76766 1.7041 23.1387 1.7041 66.8037V516.927C1.7041 557.771 22.5981 579.156 63.8961 579.156H515.92C557.227 579.156 578.149 558.84 578.149 516.927V66.8037C578.149 24.2027 557.227 1.76766 514.627 1.76766C514.624 1.76766 66.1331 1.62466 66.2751 1.76766Z" fill="#111111" stroke="#EEEEEE" stroke-width="3.408"/>
<path d="M288.161 260.618H260.087C225.8 260.618 198.473 288.69 198.473 322.977V449.931C200.279 484.523 226.048 513.214 262.571 512.538H415.363C453.978 513.556 481.128 472.691 481.696 449.931V322.977C481.696 288.69 454.37 260.618 420.083 260.618H388.034H288.161ZM363.19 260.618H313.253H363.19ZM257.134 290.928H423.265C436.307 290.928 447.613 301.24 447.613 314.282V400.739C447.613 413.781 436.307 424.093 423.265 424.093H257.134C244.093 424.093 233.036 413.781 233.036 400.739V314.282C233.036 301.24 244.093 290.928 257.134 290.928V290.928Z" fill="white"/>
<path d="M435.962 48.0375L28.0166 266.007L51.037 309.091L458.982 91.1218L435.962 48.0375Z" fill="white"/>
<path d="M324.782 130.313L324.565 283.621L355.388 283.689L355.605 130.381L324.782 130.313Z" fill="white"/>
</g>
<defs>
<clipPath id="clip0">
<path d="M0 0H580V580H0V0Z" fill="white"/>
</clipPath>
</defs>
</svg>
